symbols/web/moving/materialsymbolsoutlined/moving_wght200gradN25_48px.svg

<svg xmlns="http://www.w3.org/2000/svg" height="48" width="48"><path d="m6.3 34.6-1.05-1.1L15.3 23.45q1.35-1.35 3.325-1.375 1.975-.025 3.425 1.375l2.3 2.3q.9 1 2.275.975Q28 26.7 28.95 25.75L40.2 14.5h-6.9V13h9.5v9.5h-1.5v-6.9L30 26.85q-1.4 1.35-3.375 1.375-1.975.025-3.325-1.325l-2.35-2.35q-.95-.95-2.325-.95-1.375 0-2.275.95Z"/></svg>

<svg xmlns="http://www.w3.org/2000/svg" height="48" width="48"><path d="M6.3 34.6 5.25 33.5 15.3 23.45Q16.65 22.1 18.625 22.075Q20.6 22.05 22.05 23.45L24.35 25.75Q25.25 26.75 26.625 26.725Q28 26.7 28.95 25.75L40.2 14.5H33.3V13H42.8V22.5H41.3V15.6L30 26.85Q28.6 28.2 26.625 28.225Q24.65 28.25 23.3 26.9L20.95 24.55Q20 23.6 18.625 23.6Q17.25 23.6 16.35 24.55Z"/></svg>
